Simply-Green-Circles/scalable/categories/applications-graphics.svg

<?xml version="1.0" encoding="UTF-8" standalone="no"?>
<svg
   xmlns:dc="http://purl.org/dc/elements/1.1/"
   xmlns:cc="http://creativecommons.org/ns#"
   xmlns:rdf="http://www.w3.org/1999/02/22-rdf-syntax-ns#"
   xmlns:svg="http://www.w3.org/2000/svg"
   xmlns="http://www.w3.org/2000/svg"
   xmlns:sodipodi="http://sodipodi.sourceforge.net/DTD/sodipodi-0.dtd"
   xmlns:inkscape="http://www.inkscape.org/namespaces/inkscape"
   width="48"
   height="48"
   viewBox="0 0 12.7 12.7"
   version="1.1"
   id="svg4"
   sodipodi:docname="applications-graphics.svg"
   inkscape:version="0.92.4 (5da689c313, 2019-01-14)">
  <metadata
     id="metadata10">
    <rdf:RDF>
      <cc:Work
         rdf:about="">
        <dc:format>image/svg+xml</dc:format>
        <dc:type
           rdf:resource="http://purl.org/dc/dcmitype/StillImage" />
        <dc:title></dc:title>
      </cc:Work>
    </rdf:RDF>
  </metadata>
  <defs
     id="defs8" />
  <sodipodi:namedview
     pagecolor="#ffffff"
     bordercolor="#666666"
     borderopacity="1"
     objecttolerance="10"
     gridtolerance="10"
     guidetolerance="10"
     inkscape:pageopacity="0"
     inkscape:pageshadow="2"
     inkscape:window-width="1087"
     inkscape:window-height="480"
     id="namedview6"
     showgrid="false"
     inkscape:zoom="4.9166667"
     inkscape:cx="2.1355932"
     inkscape:cy="24"
     inkscape:window-x="0"
     inkscape:window-y="25"
     inkscape:window-maximized="0"
     inkscape:current-layer="svg4" />
  <path
     d="M 6.344,0.077 A 6.267,6.267 0 0 0 0.076,6.344 6.267,6.267 0 0 0 6.344,12.611 6.267,6.267 0 0 0 12.611,6.344 6.267,6.267 0 0 0 6.344,0.077 Z M 6.326,1.009 A 5.388,5.388 0 0 1 11.714,6.399 5.388,5.388 0 0 1 6.326,11.786 5.388,5.388 0 0 1 0.937,6.398 5.388,5.388 0 0 1 6.327,1.009 Z M 6.298,2.247 V 2.248 C 5.182,2.264 3.682,2.672 3.708,3.984 3.734,5.353 5.251,4.863 5.374,5.422 5.393,5.399 5.421,5.379 5.44,5.356 5.545,5.243 5.649,5.151 5.754,5.042 5.919,4.856 6.091,4.682 6.266,4.496 6.851,3.873 6.876,3.835 8.274,2.776 A 3.783,3.783 0 0 0 6.53,2.247 c -0.071,-0.002 -0.157,0 -0.232,0 z M 9.551,2.248 C 8.598,2.936 7.325,3.995 6.315,5.07 6.223,5.168 6.135,5.262 6.048,5.36 5.993,5.417 5.935,5.464 5.881,5.523 5.846,5.563 5.814,5.609 5.781,5.65 A 24.076,24.076 0 0 0 3.85,8.13 C 3.685,8.046 3.479,8.034 3.258,8.18 2.859,8.444 2.943,9.39 2.122,9.39 2.2,9.708 3.04,9.704 3.608,9.562 4.144,9.427 4.307,8.957 4.205,8.565 4.191,8.51 4.156,8.455 4.124,8.4 A 25.718,25.718 0 0 0 6.431,6.264 c 0.127,-0.13 0.28,-0.3 0.45,-0.49 C 7.517,5.07 8.43,3.958 9.55,2.25 Z m -4.27,0.81 a 0.793,0.793 0 0 1 0.01,0 c 0.438,0 0.792,0.355 0.792,0.793 A 0.793,0.793 0 1 1 5.281,3.058 Z m 3.857,0.35 C 8.388,4.591 7.885,5.29 7.355,5.836 7.016,6.183 6.74,6.53 6.497,6.778 A 45.523,45.523 0 0 1 4.83,8.415 c 0.033,0.778 0.428,1.453 1.716,1.703 2.063,0.4 4.248,-0.965 4.028,-3.736 C 10.48,5.192 9.831,4.116 9.138,3.408 Z m 0.181,2.014 a 0.53,0.53 0 0 1 0,1.059 0.53,0.53 0 0 1 0,-1.059 z M 8.967,7.01 a 0.53,0.53 0 0 1 0.022,0 0.53,0.53 0 0 1 0,1.058 A 0.53,0.53 0 0 1 8.967,7.01 Z m -2.62,1.057 a 0.53,0.53 0 0 1 0,1.059 0.53,0.53 0 0 1 0,-1.059 z m 1.585,0 a 0.53,0.53 0 0 1 0,1.059 0.53,0.53 0 0 1 0,-1.059 z"
     id="path2"
     inkscape:connector-curvature="0"
     style="fill:#2ca02c" />
</svg>

<svg xmlns="http://www.w3.org/2000/svg" width="48" height="48" viewBox="0 0 12.7 12.7"><path fill="#2ca02c" d="M6.34.08A6.27 6.27 0 0 0 .08 6.34a6.27 6.27 0 0 0 6.26 6.27 6.27 6.27 0 0 0 6.27-6.27A6.27 6.27 0 0 0 6.34.08zM6.33 1A5.39 5.39 0 0 1 11.7 6.4a5.39 5.39 0 0 1-5.38 5.39 5.39 5.39 0 0 1-5.4-5.4 5.39 5.39 0 0 1 5.4-5.38zM6.3 2.25c-1.12.01-2.62.42-2.6 1.73.03 1.37 1.55.88 1.67 1.44l.07-.06c.1-.12.2-.2.31-.32l.52-.54c.58-.63.6-.67 2-1.72a3.78 3.78 0 0 0-1.74-.53H6.3zm3.25 0a24.16 24.16 0 0 0-3.5 3.11l-.17.16-.1.13a24.08 24.08 0 0 0-1.93 2.48.56.56 0 0 0-.6.05c-.4.26-.3 1.21-1.13 1.21.08.32.92.31 1.49.17.53-.13.7-.6.6-1l-.09-.16a25.72 25.72 0 0 0 2.31-2.14l.45-.49a28.6 28.6 0 0 0 2.67-3.52zm-4.27.8a.8.8 0 0 1 .01 0c.44 0 .8.36.8.8a.8.8 0 1 1-.8-.8zm3.86.36a14.8 14.8 0 0 1-1.78 2.43c-.34.34-.62.69-.86.94A45.52 45.52 0 0 1 4.83 8.4c.03.78.43 1.46 1.72 1.7 2.06.4 4.24-.96 4.02-3.73a4.99 4.99 0 0 0-1.43-2.97zm.18 2.01a.53.53 0 0 1 0 1.06.53.53 0 0 1 0-1.06zm-.35 1.59a.53.53 0 0 1 .02 0 .53.53 0 0 1 0 1.06A.53.53 0 0 1 8.97 7zM6.35 8.07a.53.53 0 0 1 0 1.06.53.53 0 0 1 0-1.06zm1.58 0a.53.53 0 0 1 0 1.06.53.53 0 0 1 0-1.06z"/></svg>
